X: 12949
T: Fiddler's Green
R: jig
M: 6/8
K: Dmajor
|:f3 afe|def B2d|eef edB|ABe d2z:|
|:A2f edf|A2f edf|ABd eAB|edA Bce|
A2d edf|A2f edf|ABd E'AB|eda d2z:|

